flaticon/emoticons/happy-5.svg

<svg xmlns="http://www.w3.org/2000/svg" width="32" height="32" viewBox="0 0 24 24">
    <path d="M 8.726562 8.726562 C 8.726562 9.632812 7.996094 10.363281 7.089844 10.363281 C 6.1875 10.363281 5.453125 9.632812 5.453125 8.726562 C 5.453125 7.824219 6.1875 7.089844 7.089844 7.089844 C 7.996094 7.089844 8.726562 7.824219 8.726562 8.726562 Z M 8.726562 8.726562"/>
    <path d="M10.910156 8.726562C10.910156 6.621094 9.195312 4.910156 7.089844 4.910156 4.984375 4.910156 3.273438 6.621094 3.273438 8.726562 3.273438 10.832031 4.984375 12.546875 7.089844 12.546875 9.195312 12.546875 10.910156 10.832031 10.910156 8.726562zM4.363281 8.726562C4.363281 7.222656 5.585938 6 7.089844 6 8.59375 6 9.816406 7.222656 9.816406 8.726562 9.816406 10.230469 8.59375 11.453125 7.089844 11.453125 5.585938 11.453125 4.363281 10.230469 4.363281 8.726562zM18.546875 8.726562C18.546875 9.632812 17.8125 10.363281 16.910156 10.363281 16.003906 10.363281 15.273438 9.632812 15.273438 8.726562 15.273438 7.824219 16.003906 7.089844 16.910156 7.089844 17.8125 7.089844 18.546875 7.824219 18.546875 8.726562zM18.546875 8.726562"/>
    <path d="M16.910156 4.910156C14.804688 4.910156 13.089844 6.621094 13.089844 8.726562 13.089844 10.832031 14.804688 12.546875 16.910156 12.546875 19.015625 12.546875 20.726562 10.832031 20.726562 8.726562 20.726562 6.621094 19.015625 4.910156 16.910156 4.910156zM16.910156 11.453125C15.40625 11.453125 14.183594 10.230469 14.183594 8.726562 14.183594 7.222656 15.40625 6 16.910156 6 18.414062 6 19.636719 7.222656 19.636719 8.726562 19.636719 10.230469 18.414062 11.453125 16.910156 11.453125zM18 14.726562L6 14.726562C5.699219 14.726562 5.453125 14.972656 5.453125 15.273438 5.453125 18.882812 8.390625 21.816406 12 21.816406 15.609375 21.816406 18.546875 18.882812 18.546875 15.273438 18.546875 14.972656 18.300781 14.726562 18 14.726562zM16.984375 17.46875C16.960938 17.464844 16.9375 17.453125 16.910156 17.453125L15.816406 17.453125 15.816406 15.816406 17.425781 15.816406C17.371094 16.402344 17.214844 16.957031 16.984375 17.46875zM13.636719 17.453125L13.636719 15.816406 14.726562 15.816406 14.726562 17.453125zM14.726562 18.546875L14.726562 19.988281C14.382812 20.1875 14.019531 20.351562 13.636719 20.472656L13.636719 18.546875zM9.273438 17.453125L9.273438 15.816406 10.363281 15.816406 10.363281 17.453125zM10.363281 18.546875L10.363281 20.472656C9.980469 20.351562 9.617188 20.1875 9.273438 19.988281L9.273438 18.546875zM11.453125 15.816406L12.546875 15.816406 12.546875 17.453125 11.453125 17.453125zM8.183594 15.816406L8.183594 17.453125 7.089844 17.453125C7.0625 17.453125 7.039062 17.464844 7.015625 17.46875 6.785156 16.957031 6.632812 16.402344 6.574219 15.816406zM7.640625 18.546875L8.183594 18.546875 8.183594 19.15625C7.988281 18.964844 7.804688 18.761719 7.640625 18.546875zM11.453125 20.699219L11.453125 18.546875 12.546875 18.546875 12.546875 20.699219C12.367188 20.71875 12.183594 20.726562 12 20.726562 11.816406 20.726562 11.632812 20.71875 11.453125 20.699219zM15.816406 19.15625L15.816406 18.546875 16.359375 18.546875C16.195312 18.761719 16.011719 18.964844 15.816406 19.15625zM15.816406 19.15625"/>
    <path d="M 12 0 C 5.382812 0 0 5.382812 0 12 C 0 18.617188 5.382812 24 12 24 C 18.617188 24 24 18.617188 24 12 C 24 5.382812 18.617188 0 12 0 Z M 12 22.910156 C 5.984375 22.910156 1.089844 18.015625 1.089844 12 C 1.089844 5.984375 5.984375 1.089844 12 1.089844 C 18.015625 1.089844 22.910156 5.984375 22.910156 12 C 22.910156 18.015625 18.015625 22.910156 12 22.910156 Z M 12 22.910156"/>
</svg>

<svg xmlns="http://www.w3.org/2000/svg" width="32" height="32" viewBox="0 0 24 24">
    <path d="M8.727 8.727a1.636 1.636 0 1 1-3.274 0 1.636 1.636 0 0 1 3.274 0zm0 0"/>
    <path d="M10.91 8.727A3.823 3.823 0 0 0 7.09 4.91a3.82 3.82 0 0 0-3.817 3.817c0 2.105 1.711 3.82 3.817 3.82a3.826 3.826 0 0 0 3.82-3.82zm-6.547 0A2.729 2.729 0 0 1 7.09 6a2.729 2.729 0 0 1 2.726 2.727 2.729 2.729 0 0 1-2.726 2.726 2.729 2.729 0 0 1-2.727-2.726zm0 0M18.547 8.727a1.636 1.636 0 1 1-3.273 0 1.636 1.636 0 0 1 3.273 0zm0 0"/>
    <path d="M16.91 4.91a3.823 3.823 0 0 0-3.82 3.817 3.826 3.826 0 0 0 3.82 3.82 3.823 3.823 0 0 0 3.817-3.82A3.82 3.82 0 0 0 16.91 4.91zm0 6.543a2.729 2.729 0 0 1-2.726-2.726A2.729 2.729 0 0 1 16.91 6a2.729 2.729 0 0 1 2.727 2.727 2.729 2.729 0 0 1-2.727 2.726zm0 0M18 14.727H6c-.3 0-.547.246-.547.546 0 3.61 2.938 6.543 6.547 6.543 3.61 0 6.547-2.933 6.547-6.543 0-.3-.246-.546-.547-.546zm-1.016 2.742c-.023-.004-.047-.016-.074-.016h-1.094v-1.637h1.61a5.194 5.194 0 0 1-.442 1.653zm-3.347-.016v-1.637h1.09v1.637zm1.09 1.094v1.441a5.45 5.45 0 0 1-1.09.485v-1.926zm-5.454-1.094v-1.637h1.09v1.637zm1.09 1.094v1.926a5.45 5.45 0 0 1-1.09-.485v-1.441zm1.09-2.73h1.094v1.636h-1.094zm-3.27 0v1.636H7.09c-.027 0-.05.012-.074.016a5.298 5.298 0 0 1-.442-1.653zm-.542 2.73h.543v.61a5.712 5.712 0 0 1-.543-.61zm3.812 2.152v-2.152h1.094v2.152c-.18.02-.363.028-.547.028-.184 0-.367-.008-.547-.028zm4.363-1.543v-.61h.543a5.712 5.712 0 0 1-.543.61zm0 0"/>
    <path d="M12 0C5.383 0 0 5.383 0 12s5.383 12 12 12 12-5.383 12-12S18.617 0 12 0zm0 22.91C5.984 22.91 1.09 18.016 1.09 12S5.984 1.09 12 1.09 22.91 5.984 22.91 12 18.016 22.91 12 22.91zm0 0"/>
</svg>
